X:1
T:Rhapsody on a Theme of Paganini (18th var.)
C:Sergei Rachmaninoff
M:3/4
L:1/4
Q:1/4=72
K:C
G | c d e | d c B | c2 A | G3 | c d e | f e d | c d e | c3 | e2 g | f e d | c B A | G3 |]
